remix/System/list-settings-line.svg

<svg viewBox="0 0 24 24" fill="currentColor" xmlns="http://www.w3.org/2000/svg"><path d="M2 18H9V20H2V18ZM2 11H11V13H2V11ZM2 4H22V6H2V4ZM20.674 13.0251L21.8301 12.634L22.8301 14.366L21.914 15.1711C21.9704 15.4386 22 15.7158 22 16C22 16.2842 21.9704 16.5614 21.914 16.8289L22.8301 17.634L21.8301 19.366L20.674 18.9749C20.2635 19.3441 19.7763 19.6295 19.2391 19.8044L19 21H17L16.7609 19.8044C16.2237 19.6295 15.7365 19.3441 15.326 18.9749L14.1699 19.366L13.1699 17.634L14.086 16.8289C14.0296 16.5614 14 16.2842 14 16C14 15.7158 14.0296 15.4386 14.086 15.1711L13.1699 14.366L14.1699 12.634L15.326 13.0251C15.7365 12.6559 16.2237 12.3705 16.7609 12.1956L17 11H19L19.2391 12.1956C19.7763 12.3705 20.2635 12.6559 20.674 13.0251ZM18 18C19.1046 18 20 17.1046 20 16C20 14.8954 19.1046 14 18 14C16.8954 14 16 14.8954 16 16C16 17.1046 16.8954 18 18 18Z"/></svg>

<svg viewBox="0 0 24 24" xmlns="http://www.w3.org/2000/svg"><path fill="none" d="M0 0h24v24H0Z"/><path d="M2 18h7v2H2v-2Zm0-7h9v2H2v-2Zm0-7h20v2H2V4Zm18.67 9.025l1.15-.391 1 1.73 -.92.8v0c.11.54.11 1.11 0 1.65l.91.8 -1 1.73 -1.16-.4c-.41.37-.9.65-1.44.83l-.24 1.19h-2l-.24-1.2v0c-.54-.18-1.02-.46-1.44-.83l-1.16.39 -1-1.74 .91-.81h0c-.12-.55-.12-1.12 0-1.66l-.92-.81 1-1.74 1.15.391c.41-.37.89-.66 1.43-.83l.23-1.2h2l.24 1.19c.53.17 1.02.46 1.43.83ZM17.99 18v0c1.1 0 2-.9 2-2 0-1.11-.9-2-2-2v0c-1.11 0-2 .89-2 2 0 1.1.89 2 2 2Z"/></svg>
